X:18
T:Uncle's Jig
C:Trad
M:6/8
L:1/8
K:G
B2c|:ddd dcB|ddd d2d|g2g f2e|d3dcB|
c2e edc|B2d G2B|A2B cBA|1GAG FBc:|2G3G3|:
K:D
A2d c2e|d2f a2f|e2f gfe|d2f A3|
A2d c2e|d2f a2f|e2f gfe|1d3d3:|2d3|]
